X: 1465
T: Bill Clancy's Delight
M:C|
L:1/8
N:"collected by J. O'Neill"
B:O'Neill's 1465
Z:"Transcribed by Bob Safranek, rjs@gsp.org"
K:D
d2 fd AFDF | d2 fd egfe | d2 fd AFDF | GEFD EDB,A, |
d2 fd AFDF | d2 fd egfe | d2 fd AFDF | dfeg fd d2  ||
((3FED) (AD) BDAD | ((3FED) (AD) CEEG | ((3FED) (AD) BDAD | GEFD A,DDG |
((3FED) (AD) BDAD | ((3FED) (AD) CEEG |    FAdf      ecdB | Agfe fd d2 |]


